; generated by Slic3r 1.0.0RC1 on 2014-02-19 at 20:07:15

; layer_height = 0.3
; perimeters = 3
; top_solid_layers = 3
; bottom_solid_layers = 3
; fill_density = .6
; perimeter_speed = 75
; infill_speed = 90
; travel_speed = 150
; nozzle_diameter = 0.5
; filament_diameter = 2.83
; extrusion_multiplier = .631
; perimeters extrusion width = 0.50mm
; infill extrusion width = 0.70mm
; solid infill extrusion width = 0.70mm
; top infill extrusion width = 0.70mm
; first layer extrusion width = 0.70mm

G21 ; set units to millimeters
M106 S0
M104 S200 ; set temperature
G28 ; home all axes
G1 Z5 F5000 ; lift nozzle
M104 S200 ; set temperature
M116 ; wait for temperature to be reached
G90 ; use absolute coordinates
M83 ; use relative distances for extrusion
G1 F1800.000 E-1.00000
G1 Z0.350 F9000.000
G1 X33.880 Y43.390 F9000.000
G1 E1.00000 F1800.000
G1 X35.010 Y42.600 E0.03181 F1350.000
G1 X36.270 Y42.010 E0.03210
G1 X37.620 Y41.650 E0.03223
G1 X39.000 Y41.530 E0.03196
G1 X101.000 Y41.530 E1.43036
G1 X102.380 Y41.650 E0.03196
G1 X103.730 Y42.010 E0.03223
G1 X104.990 Y42.600 E0.03210
G1 X106.120 Y43.390 E0.03181
G1 X107.110 Y44.380 E0.03230
G1 X107.900 Y45.510 E0.03181
G1 X108.490 Y46.770 E0.03210
G1 X108.850 Y48.120 E0.03223
G1 X108.970 Y49.500 E0.03196
G1 X108.970 Y67.500 E0.41526
G1 X108.950 Y68.050 E0.01270
G1 X105.950 Y111.050 E0.99443
G1 X105.710 Y112.530 E0.03459
G1 X105.200 Y113.930 E0.03437
G1 X104.430 Y115.210 E0.03446
G1 X103.440 Y116.330 E0.03449
G1 X102.250 Y117.240 E0.03456
G1 X100.920 Y117.920 E0.03446
G1 X99.490 Y118.330 E0.03432
G1 X98.000 Y118.470 E0.03453
G1 X39.000 Y118.470 E1.36115
G1 X37.620 Y118.350 E0.03196
G1 X36.270 Y117.990 E0.03223
G1 X35.010 Y117.400 E0.03210
G1 X33.880 Y116.610 E0.03181
G1 X32.890 Y115.620 E0.03230
G1 X32.100 Y114.490 E0.03181
G1 X31.510 Y113.230 E0.03210
G1 X31.150 Y111.880 E0.03223
G1 X31.030 Y110.500 E0.03196
G1 X31.030 Y49.500 E1.40729
G1 X31.150 Y48.120 E0.03196
G1 X31.510 Y46.770 E0.03223
G1 X32.100 Y45.510 E0.03210
G1 X32.890 Y44.380 E0.03181
G1 X33.810 Y43.460 E0.03003
G1 X33.830 Y44.330 F9000.000
G1 X34.940 Y43.420 E0.03311 F1350.000
G1 X36.200 Y42.740 E0.03303
G1 X37.570 Y42.330 E0.03299
G1 X39.000 Y42.190 E0.03315
G1 X101.000 Y42.190 E1.43036
G1 X102.430 Y42.330 E0.03315
G1 X103.800 Y42.740 E0.03299
G1 X105.060 Y43.420 E0.03303
G1 X106.170 Y44.330 E0.03311
G1 X107.080 Y45.440 E0.03311
G1 X107.760 Y46.700 E0.03303
G1 X108.170 Y48.070 E0.03299
G1 X108.310 Y49.500 E0.03315
G1 X108.300 Y68.010 E0.42703
G1 X105.300 Y111.010 E0.99443
G1 X105.070 Y112.360 E0.03159
G1 X104.600 Y113.650 E0.03167
G1 X103.900 Y114.820 E0.03145
G1 X102.990 Y115.850 E0.03171
G1 X101.900 Y116.690 E0.03175
G1 X100.680 Y117.310 E0.03157
G1 X99.360 Y117.690 E0.03169
G1 X98.000 Y117.810 E0.03150
G1 X39.000 Y117.810 E1.36115
G1 X37.570 Y117.670 E0.03315
G1 X36.200 Y117.260 E0.03299
G1 X34.940 Y116.580 E0.03303
G1 X33.830 Y115.670 E0.03311
G1 X32.920 Y114.560 E0.03311
G1 X32.240 Y113.300 E0.03303
G1 X31.830 Y111.930 E0.03299
G1 X31.690 Y110.500 E0.03315
G1 X31.690 Y49.500 E1.40729
G1 X31.830 Y48.070 E0.03315
G1 X32.240 Y46.700 E0.03299
G1 X32.920 Y45.440 E0.03303
G1 X33.768 Y44.406 E0.03084
G1 X34.290 Y44.790 F9000.000
G1 X35.300 Y43.960 E0.03016 F1350.000
G1 X36.450 Y43.350 E0.03003
G1 X37.700 Y42.970 E0.03014
G1 X39.000 Y42.840 E0.03014
G1 X101.000 Y42.840 E1.43036
G1 X102.300 Y42.970 E0.03014
G1 X103.550 Y43.350 E0.03014
G1 X104.700 Y43.960 E0.03003
G1 X105.710 Y44.790 E0.03016
G1 X106.540 Y45.800 E0.03016
G1 X107.150 Y46.950 E0.03003
G1 X107.530 Y48.200 E0.03014
G1 X107.660 Y49.500 E0.03014
G1 X107.660 Y67.500 E0.41526
G1 X104.640 Y110.960 E1.00505
G1 X104.390 Y112.370 E0.03304
G1 X103.850 Y113.680 E0.03269
G1 X103.040 Y114.850 E0.03283
G1 X101.990 Y115.830 E0.03314
G1 X100.770 Y116.550 E0.03268
G1 X99.420 Y117.000 E0.03283
G1 X98.000 Y117.160 E0.03297
G1 X39.000 Y117.160 E1.36115
G1 X37.700 Y117.030 E0.03014
G1 X36.450 Y116.650 E0.03014
G1 X35.300 Y116.040 E0.03003
G1 X34.290 Y115.210 E0.03016
G1 X33.460 Y114.200 E0.03016
G1 X32.850 Y113.050 E0.03003
G1 X32.470 Y111.800 E0.03014
G1 X32.340 Y110.500 E0.03014
G1 X32.340 Y49.500 E1.40729
G1 X32.470 Y48.200 E0.03014
G1 X32.850 Y46.950 E0.03014
G1 X33.460 Y45.800 E0.03003
G1 X34.227 Y44.866 E0.02789
G1 F1800.000 E-1.00000
G1 X74.664 Y75.164 F9000.000
G1 E1.00000 F1800.000
G1 X96.336 Y75.164 E0.49997 F1350.000
G1 X96.336 Y84.836 E0.22313
G1 X74.664 Y84.836 E0.49997
G1 X74.664 Y75.263 E0.22085
G1 X74.007 Y74.507 F9000.000
G1 X96.993 Y74.507 E0.53029 F1350.000
G1 X96.993 Y85.493 E0.25345
G1 X74.007 Y85.493 E0.53029
G1 X74.007 Y74.606 E0.25117
G1 X73.350 Y73.850 F9000.000
G1 X97.650 Y73.850 E0.56061 F1350.000
G1 X97.650 Y86.150 E0.28376
G1 X73.350 Y86.150 E0.56061
G1 X73.350 Y73.949 E0.28149
G1 X73.919 Y74.179 F9000.000
G1 X75.174 Y84.393 F9000.000
G1 X75.107 Y84.326 E0.00224 F1530.000
G1 X75.107 Y83.376 E0.02239
G1 X76.124 Y84.393 E0.03390
G1 X77.073 Y84.393 E0.02239
G1 X75.107 Y82.427 E0.06556
G1 X75.107 Y81.477 E0.02239
G1 X78.023 Y84.393 E0.09722
G1 X78.973 Y84.393 E0.02239
G1 X75.107 Y80.527 E0.12888
G1 X75.107 Y79.578 E0.02239
G1 X79.922 Y84.393 E0.16054
G1 X80.872 Y84.393 E0.02239
G1 X75.107 Y78.628 E0.19221
G1 X75.107 Y77.679 E0.02239
G1 X81.821 Y84.393 E0.22387
G1 X82.771 Y84.393 E0.02239
G1 X75.107 Y76.729 E0.25553
G1 X75.107 Y75.779 E0.02239
G1 X83.721 Y84.393 E0.28719
G1 X84.670 Y84.393 E0.02239
G1 X75.884 Y75.607 E0.29294
G1 X76.834 Y75.607 E0.02239
G1 X85.620 Y84.393 E0.29294
G1 X86.569 Y84.393 E0.02239
G1 X77.783 Y75.607 E0.29294
G1 X78.733 Y75.607 E0.02239
G1 X87.519 Y84.393 E0.29294
G1 X88.469 Y84.393 E0.02239
G1 X79.683 Y75.607 E0.29294
G1 X80.632 Y75.607 E0.02239
G1 X89.418 Y84.393 E0.29294
G1 X90.368 Y84.393 E0.02239
G1 X81.582 Y75.607 E0.29294
G1 X82.531 Y75.607 E0.02239
G1 X91.317 Y84.393 E0.29294
G1 X92.267 Y84.393 E0.02239
G1 X83.481 Y75.607 E0.29294
G1 X84.431 Y75.607 E0.02239
G1 X93.217 Y84.393 E0.29294
G1 X94.166 Y84.393 E0.02239
G1 X85.380 Y75.607 E0.29294
G1 X86.330 Y75.607 E0.02239
G1 X95.116 Y84.393 E0.29294
G1 X95.893 Y84.221 E0.01877
G1 X87.279 Y75.607 E0.28719
G1 X88.229 Y75.607 E0.02239
G1 X95.893 Y83.271 E0.25553
G1 X95.893 Y82.321 E0.02239
G1 X89.179 Y75.607 E0.22387
G1 X90.128 Y75.607 E0.02239
G1 X95.893 Y81.372 E0.19220
G1 X95.893 Y80.422 E0.02239
G1 X91.078 Y75.607 E0.16054
G1 X92.027 Y75.607 E0.02239
G1 X95.893 Y79.473 E0.12888
G1 X95.893 Y78.523 E0.02239
G1 X92.977 Y75.607 E0.09722
G1 X93.927 Y75.607 E0.02239
G1 X95.893 Y77.573 E0.06556
G1 X95.893 Y76.624 E0.02239
G1 X94.876 Y75.607 E0.03390
G1 X95.826 Y75.607 E0.02239
G1 X95.893 Y75.674 E0.00224
G1 F1800.000 E-1.00000
G1 X98.850 Y64.350 F9000.000
G1 E1.00000 F1800.000
G1 X75.150 Y64.350 E0.54677 F1350.000
G1 X75.150 Y52.650 E0.26992
G1 X98.850 Y52.650 E0.54677
G1 X98.850 Y64.251 E0.26765
G1 X98.850 Y65.007 F9000.000
G1 X99.993 Y65.007 F9000.000
G1 X99.993 Y66.493 E0.03428 F1350.000
G1 X74.007 Y66.493 E0.59950
G1 X74.007 Y65.007 E0.03428
G1 X99.894 Y65.007 E0.59723
G1 X99.993 Y51.993 F9000.000
G1 X74.007 Y51.993 E0.59950 F1350.000
G1 X74.007 Y50.507 E0.03428
G1 X99.993 Y50.507 E0.59950
G1 X99.993 Y51.894 E0.03200
G1 X100.650 Y49.850 F9000.000
G1 X100.650 Y67.150 E0.39912 F1350.000
G1 X73.350 Y67.150 E0.62982
G1 X73.350 Y49.850 E0.39912
G1 X100.551 Y49.850 E0.62754
G1 X100.321 Y50.419 F9000.000
G1 X99.348 Y51.219 F9000.000
G1 X99.281 Y51.152 E0.00225 F720.000
G1 X98.525 Y51.348 E0.01847 F720.000
G1 X98.329 Y51.152 E0.00656 F720.000
G1 X97.572 Y51.348 E0.01847 F720.000
G1 X97.376 Y51.152 E0.00656 F720.000
G1 X96.620 Y51.348 E0.01847 F720.000
G1 X96.424 Y51.152 E0.00656 F720.000
G1 X95.668 Y51.348 E0.01847 F720.000
G1 X95.472 Y51.152 E0.00656 F720.000
G1 X94.716 Y51.348 E0.01847 F720.000
G1 X94.520 Y51.152 E0.00656 F720.000
G1 X93.764 Y51.348 E0.01847 F720.000
G1 X93.567 Y51.152 E0.00656 F720.000
G1 X92.811 Y51.348 E0.01847 F720.000
G1 X92.615 Y51.152 E0.00656 F720.000
G1 X91.859 Y51.348 E0.01847 F720.000
G1 X91.663 Y51.152 E0.00656 F720.000
G1 X90.907 Y51.348 E0.01847 F720.000
G1 X90.711 Y51.152 E0.00656 F720.000
G1 X89.955 Y51.348 E0.01847 F720.000
G1 X89.759 Y51.152 E0.00656 F720.000
G1 X89.002 Y51.348 E0.01847 F720.000
G1 X88.806 Y51.152 E0.00656 F720.000
G1 X88.050 Y51.348 E0.01847 F720.000
G1 X87.854 Y51.152 E0.00656 F720.000
G1 X87.098 Y51.348 E0.01847 F720.000
G1 X86.902 Y51.152 E0.00656 F720.000
G1 X86.146 Y51.348 E0.01847 F720.000
G1 X85.950 Y51.152 E0.00656 F720.000
G1 X85.194 Y51.348 E0.01847 F720.000
G1 X84.998 Y51.152 E0.00656 F720.000
G1 X84.241 Y51.348 E0.01847 F720.000
G1 X84.045 Y51.152 E0.00656 F720.000
G1 X83.289 Y51.348 E0.01847 F720.000
G1 X83.093 Y51.152 E0.00656 F720.000
G1 X82.337 Y51.348 E0.01847 F720.000
G1 X82.141 Y51.152 E0.00656 F720.000
G1 X81.385 Y51.348 E0.01847 F720.000
G1 X81.189 Y51.152 E0.00656 F720.000
G1 X80.433 Y51.348 E0.01847 F720.000
G1 X80.236 Y51.152 E0.00656 F720.000
G1 X79.480 Y51.348 E0.01847 F720.000
G1 X79.284 Y51.152 E0.00656 F720.000
G1 X78.528 Y51.348 E0.01847 F720.000
G1 X78.332 Y51.152 E0.00656 F720.000
G1 X77.576 Y51.348 E0.01847 F720.000
G1 X77.380 Y51.152 E0.00656 F720.000
G1 X76.624 Y51.348 E0.01847 F720.000
G1 X76.428 Y51.152 E0.00656 F720.000
G1 X75.671 Y51.348 E0.01847 F720.000
G1 X75.475 Y51.152 E0.00656 F720.000
G1 X74.652 Y51.281 E0.01970 F720.000
G1 X74.719 Y51.348 E0.00225 F720.000
G1 X74.439 Y52.639 F9000.000
G1 X74.504 Y52.704 E0.00215 F720.000
G1 X74.439 Y52.639 F9000.000
G1 X73.996 Y53.126 E0.01523 F720.000
G1 X74.504 Y53.635 E0.01663 F720.000
G1 X73.996 Y54.057 E0.01527 F720.000
G1 X74.504 Y54.566 E0.01663 F720.000
G1 X73.996 Y54.988 E0.01527 F720.000
G1 X74.504 Y55.497 E0.01663 F720.000
G1 X73.996 Y55.919 E0.01527 F720.000
G1 X74.504 Y56.427 E0.01663 F720.000
G1 X73.996 Y56.849 E0.01527 F720.000
G1 X74.504 Y57.358 E0.01663 F720.000
G1 X73.996 Y57.780 E0.01527 F720.000
G1 X74.504 Y58.289 E0.01663 F720.000
G1 X73.996 Y58.711 E0.01527 F720.000
G1 X74.504 Y59.220 E0.01663 F720.000
G1 X73.996 Y59.642 E0.01527 F720.000
G1 X74.504 Y60.151 E0.01663 F720.000
G1 X73.996 Y60.573 E0.01527 F720.000
G1 X74.504 Y61.081 E0.01663 F720.000
G1 X73.996 Y61.503 E0.01527 F720.000
G1 X74.504 Y62.012 E0.01663 F720.000
G1 X73.996 Y62.434 E0.01527 F720.000
G1 X74.504 Y62.943 E0.01663 F720.000
G1 X73.996 Y63.365 E0.01527 F720.000
G1 X74.504 Y63.874 E0.01663 F720.000
G1 X73.996 Y64.296 E0.01527 F720.000
G1 X74.061 Y64.361 E0.00215 F720.000
G1 X74.652 Y65.781 F9000.000
G1 X75.475 Y65.652 E0.01970 F720.000
G1 X75.671 Y65.848 E0.00656 F720.000
G1 X76.428 Y65.652 E0.01847 F720.000
G1 X76.624 Y65.848 E0.00656 F720.000
G1 X77.380 Y65.652 E0.01847 F720.000
G1 X77.576 Y65.848 E0.00656 F720.000
G1 X78.332 Y65.652 E0.01847 F720.000
G1 X78.528 Y65.848 E0.00656 F720.000
G1 X79.284 Y65.652 E0.01847 F720.000
G1 X79.480 Y65.848 E0.00656 F720.000
G1 X80.236 Y65.652 E0.01847 F720.000
G1 X80.433 Y65.848 E0.00656 F720.000
G1 X81.189 Y65.652 E0.01847 F720.000
G1 X81.385 Y65.848 E0.00656 F720.000
G1 X82.141 Y65.652 E0.01847 F720.000
G1 X82.337 Y65.848 E0.00656 F720.000
G1 X83.093 Y65.652 E0.01847 F720.000
G1 X83.289 Y65.848 E0.00656 F720.000
G1 X84.045 Y65.652 E0.01847 F720.000
G1 X84.241 Y65.848 E0.00656 F720.000
G1 X84.998 Y65.652 E0.01847 F720.000
G1 X85.194 Y65.848 E0.00656 F720.000
G1 X85.950 Y65.652 E0.01847 F720.000
G1 X86.146 Y65.848 E0.00656 F720.000
G1 X86.902 Y65.652 E0.01847 F720.000
G1 X87.098 Y65.848 E0.00656 F720.000
G1 X87.854 Y65.652 E0.01847 F720.000
G1 X88.050 Y65.848 E0.00656 F720.000
G1 X88.806 Y65.652 E0.01847 F720.000
G1 X89.002 Y65.848 E0.00656 F720.000
G1 X89.759 Y65.652 E0.01847 F720.000
G1 X89.955 Y65.848 E0.00656 F720.000
G1 X90.711 Y65.652 E0.01847 F720.000
G1 X90.907 Y65.848 E0.00656 F720.000
G1 X91.663 Y65.652 E0.01847 F720.000
G1 X91.859 Y65.848 E0.00656 F720.000
G1 X92.615 Y65.652 E0.01847 F720.000
G1 X92.811 Y65.848 E0.00656 F720.000
G1 X93.567 Y65.652 E0.01847 F720.000
G1 X93.764 Y65.848 E0.00656 F720.000
G1 X94.520 Y65.652 E0.01847 F720.000
G1 X94.716 Y65.848 E0.00656 F720.000
G1 X95.472 Y65.652 E0.01847 F720.000
G1 X95.668 Y65.848 E0.00656 F720.000
G1 X96.424 Y65.652 E0.01847 F720.000
G1 X96.620 Y65.848 E0.00656 F720.000
G1 X97.376 Y65.652 E0.01847 F720.000
G1 X97.572 Y65.848 E0.00656 F720.000
G1 X98.329 Y65.652 E0.01847 F720.000
G1 X98.525 Y65.848 E0.00656 F720.000
G1 X99.281 Y65.652 E0.01847 F720.000
G1 X99.348 Y65.719 E0.00225 F720.000
G1 X99.561 Y64.361 F9000.000
G1 X99.496 Y64.296 E0.00215 F720.000
G1 X100.004 Y63.874 E0.01527 F720.000
G1 X99.496 Y63.365 E0.01663 F720.000
G1 X100.004 Y62.943 E0.01527 F720.000
G1 X99.496 Y62.434 E0.01663 F720.000
G1 X100.004 Y62.012 E0.01527 F720.000
G1 X99.496 Y61.503 E0.01663 F720.000
G1 X100.004 Y61.081 E0.01527 F720.000
G1 X99.496 Y60.573 E0.01663 F720.000
G1 X100.004 Y60.151 E0.01527 F720.000
G1 X99.496 Y59.642 E0.01663 F720.000
G1 X100.004 Y59.220 E0.01527 F720.000
G1 X99.496 Y58.711 E0.01663 F720.000
G1 X100.004 Y58.289 E0.01527 F720.000
G1 X99.496 Y57.780 E0.01663 F720.000
G1 X100.004 Y57.358 E0.01527 F720.000
G1 X99.496 Y56.849 E0.01663 F720.000
G1 X100.004 Y56.427 E0.01527 F720.000
G1 X99.496 Y55.919 E0.01663 F720.000
G1 X100.004 Y55.497 E0.01527 F720.000
G1 X99.496 Y54.988 E0.01663 F720.000
G1 X100.004 Y54.566 E0.01527 F720.000
G1 X99.496 Y54.057 E0.01663 F720.000
G1 X100.004 Y53.635 E0.01527 F720.000
G1 X99.496 Y53.126 E0.01663 F720.000
G1 X99.939 Y52.639 E0.01523 F720.000
G1 X100.004 Y52.704 E0.00215 F720.000
G1 F1800.000 E-1.00000
G1 X74.719 Y65.848 F9000.000
G1 E1.00000 F1800.000
G1 X74.652 Y65.781 E0.00225 F720.000
G1 F1800.000 E-1.00000
G1 X64.850 Y64.350 F9000.000
G1 E1.00000 F1800.000
G1 X41.150 Y64.350 E0.54677 F1350.000
G1 X41.150 Y52.650 E0.26992
G1 X64.850 Y52.650 E0.54677
G1 X64.850 Y64.251 E0.26765
G1 X64.850 Y65.007 F9000.000
G1 X65.993 Y65.007 F9000.000
G1 X65.993 Y66.493 E0.03428 F1350.000
G1 X40.007 Y66.493 E0.59950
G1 X40.007 Y65.007 E0.03428
G1 X65.894 Y65.007 E0.59723
G1 X65.993 Y51.993 F9000.000
G1 X40.007 Y51.993 E0.59950 F1350.000
G1 X40.007 Y50.507 E0.03428
G1 X65.993 Y50.507 E0.59950
G1 X65.993 Y51.894 E0.03200
G1 X66.650 Y49.850 F9000.000
G1 X66.650 Y67.150 E0.39912 F1350.000
G1 X39.350 Y67.150 E0.62982
G1 X39.350 Y49.850 E0.39912
G1 X66.551 Y49.850 E0.62754
G1 X66.321 Y50.419 F9000.000
G1 X65.348 Y51.219 F9000.000
G1 X65.281 Y51.152 E0.00225 F720.000
G1 X64.525 Y51.348 E0.01847 F720.000
G1 X64.329 Y51.152 E0.00656 F720.000
G1 X63.572 Y51.348 E0.01847 F720.000
G1 X63.376 Y51.152 E0.00656 F720.000
G1 X62.620 Y51.348 E0.01847 F720.000
G1 X62.424 Y51.152 E0.00656 F720.000
G1 X61.668 Y51.348 E0.01847 F720.000
G1 X61.472 Y51.152 E0.00656 F720.000
G1 X60.716 Y51.348 E0.01847 F720.000
G1 X60.520 Y51.152 E0.00656 F720.000
G1 X59.764 Y51.348 E0.01847 F720.000
G1 X59.567 Y51.152 E0.00656 F720.000
G1 X58.811 Y51.348 E0.01847 F720.000
G1 X58.615 Y51.152 E0.00656 F720.000
G1 X57.859 Y51.348 E0.01847 F720.000
G1 X57.663 Y51.152 E0.00656 F720.000
G1 X56.907 Y51.348 E0.01847 F720.000
G1 X56.711 Y51.152 E0.00656 F720.000
G1 X55.955 Y51.348 E0.01847 F720.000
G1 X55.759 Y51.152 E0.00656 F720.000
G1 X55.002 Y51.348 E0.01847 F720.000
G1 X54.806 Y51.152 E0.00656 F720.000
G1 X54.050 Y51.348 E0.01847 F720.000
G1 X53.854 Y51.152 E0.00656 F720.000
G1 X53.098 Y51.348 E0.01847 F720.000
G1 X52.902 Y51.152 E0.00656 F720.000
G1 X52.146 Y51.348 E0.01847 F720.000
G1 X51.950 Y51.152 E0.00656 F720.000
G1 X51.194 Y51.348 E0.01847 F720.000
G1 X50.998 Y51.152 E0.00656 F720.000
G1 X50.241 Y51.348 E0.01847 F720.000
G1 X50.045 Y51.152 E0.00656 F720.000
G1 X49.289 Y51.348 E0.01847 F720.000
G1 X49.093 Y51.152 E0.00656 F720.000
G1 X48.337 Y51.348 E0.01847 F720.000
G1 X48.141 Y51.152 E0.00656 F720.000
G1 X47.385 Y51.348 E0.01847 F720.000
G1 X47.189 Y51.152 E0.00656 F720.000
G1 X46.433 Y51.348 E0.01847 F720.000
G1 X46.236 Y51.152 E0.00656 F720.000
G1 X45.480 Y51.348 E0.01847 F720.000
G1 X45.284 Y51.152 E0.00656 F720.000
G1 X44.528 Y51.348 E0.01847 F720.000
G1 X44.332 Y51.152 E0.00656 F720.000
G1 X43.576 Y51.348 E0.01847 F720.000
G1 X43.380 Y51.152 E0.00656 F720.000
G1 X42.624 Y51.348 E0.01847 F720.000
G1 X42.428 Y51.152 E0.00656 F720.000
